X:1
T:Bossiney, irr.
T:Bossiney, irr.
T:Gustav Theodore Holst, 1906
T:Public Domain Courtesy of the Cyber Hymnal™
C:Gustav Theodore Holst, 1906
Z:Public Domain
Z:Courtesy of the Cyber Hymnal™
%%score ( 1 2 ) ( 3 4 )
L:1/8
Q:1/4=115
M:none
K:F
V:1 treble 
V:2 treble 
V:3 bass 
V:4 bass 
V:1
 [CF]2 C2 [B,D]2 [CF]2 | [FB][FA][EG][EA] [EG]2 F2 | [Fc]2 B2 [FA]3 [CA] | (GA) (BG) [CE]4 | %4
 [A,F]2 [CG][FA] B3 z B | ([FA][GB]) ([Ac][FA]) [FA]2 [EG]2 | [Fc]2 (AG) [DF]2 [DG]2 | %7
 [CF]2 [CE]2 [CF]4 |: [EG]2 [Fc][G=B] [FA]2 [A,F]2 | [=B,D]2 [B,G]2 [CF]2 [CE]2 | %10
 [CA]2 [=B,A]2 [CG]3 [CG] | (FG) (AF) [=B,D]4 | D2 [=B,G][B,F] [CE]3 [CE] | (EF) (GA) [DG]2 [DF]2 | %14
 G2 [_GA]2 [=GB]2 [DA]2 | (GA) (GF) [CE]4 || [CF]2 C2 [B,D]2 [CF]2 | [FB][FA][EG][EA] [EG]2 F2 | %18
 [Fc]2 B2 [FA]3 [CA] | (GA) BG [CE]4 | [A,F]2 [CG][FA] B3 z B | ([FA][GB]) ([Ac][FA]) [FA]2 [EG]2 | %22
 [Fc]2 (AG) [DF]2 [DG]2 | [CF]2 [CE]2 [CF]4"^Play 5 times" :| %24
V:2
 x2 C2 x4 | x6 F2 | x2 (DE) x4 | D2 D2 x4 | x4 D2 C2 x | x8 | x2 E2 x4 | x8 |: x8 | x8 | x8 | %11
 C2 C2 x4 | D2 x6 | x2 C2 x4 | G2 x6 | B,2 B,2 x4 || x2 C2 x4 | x6 F2 | x2 (DE) x4 | D2 D2 x4 | %20
 x4 D2 C2 x | x8 | x2 E2 x4 | x8 :| %24
V:3
 [F,,A,]2 [A,,F,]2 [B,,F,]2 [A,,C]2 | [G,,D][G,,C][C,B,][C,C] [F,B,]2 [F,A,]2 | %2
 [F,,A,]2 [G,,B,]2 [A,,C]3 [F,,F,] | [B,,F,]2 [G,,F,]2 [C,G,]4 | %4
 [D,F,]2 [E,C][F,C] [G,B,]2 [E,C]2 x | [F,C]2 [A,,C]2 [C,C]2 [C,C]2 | %6
 [A,,C]2 (CB,) [D,A,]2 [C,B,]2 | [C,A,]2 [C,G,]2 [F,A,]4 |: [C,C]2 [D,C][E,C] [F,C]2 [D,C]2 | %9
 G,2 [G,,G,]2 [C,G,]2 [C,G,]2 | F,2 [D,F,]2 [E,G,]3 [E,G,] | [D,A,]2 [F,A,]2 G,4 | %12
 [=B,,A,]2 [G,,G,][G,,G,] [C,G,]3 [C,G,] | [C,A,]2 [A,,A,]2 [D,A,]2 [D,A,]2 | %14
 [B,D]2 [A,C]2 [G,D]2 [F,B,]2 | [E,G,]2 [D,G,]2 [C,G,]4 || [F,,A,]2 [A,,F,]2 [B,,F,]2 [A,,C]2 | %17
 [G,,D][G,,C][C,B,][C,C] [F,B,]2 [F,A,]2 | [F,,A,]2 [G,,B,]2 [A,,C]3 [F,,F,] | %19
 [B,,F,]2 [G,,F,]2 [C,G,]4 | [D,F,]2 [E,C][F,C] [G,B,]2 [E,C]2 x | [F,C]2 [A,,C]2 [C,C]2 [C,C]2 | %22
 [A,,C]2 (CB,) [D,A,]2 [C,B,]2 | [C,A,]2 [C,G,]2 [F,A,]4"^Play 5 times" :| %24
V:4
 x8 | x8 | x8 | x8 | x9 | x8 | x2 C,2 x4 | x8 |: x8 | G,2 x6 | F,2 x6 | x4 G,4 | x8 | x8 | x8 | %15
 x8 || x8 | x8 | x8 | x8 | x9 | x8 | x2 C,2 x4 | x8 :| %24

